assets/duotone/chat-text-duotone.svg

<svg id="Flat" xmlns="http://www.w3.org/2000/svg" viewBox="0 0 256.00098 256.00098">
  <g opacity="0.2">
    <path d="M77.98509,201.34409,45.14832,228.94793a8,8,0,0,1-13.14783-6.12372V64.00049a8,8,0,0,1,8-8h176a8,8,0,0,1,8,8v128a8,8,0,0,1-8,8H81.67142Z"/>
  </g>
  <g>
    <path d="M216.00049,48.00049h-176a16.01833,16.01833,0,0,0-16,16V222.82422a15.85,15.85,0,0,0,9.24414,14.5039,16.07979,16.07979,0,0,0,6.79785,1.52149,15.88972,15.88972,0,0,0,10.25293-3.77783L82.05127,208.377l1.03223-.37646h132.917a16.018,16.018,0,0,0,16-16v-128A16.01833,16.01833,0,0,0,216.00049,48.00049Zm0,144H81.67139a8.0053,8.0053,0,0,0-2.74121.48388l-3.68262,1.34278a7.99607,7.99607,0,0,0-2.41016,1.39306L40.00049,222.81885V64.00049h176Z"/>
    <path d="M96.00049,120h64a8,8,0,0,0,0-16h-64a8,8,0,0,0,0,16Z"/>
    <path d="M96.00049,152h64a8,8,0,0,0,0-16h-64a8,8,0,0,0,0,16Z"/>
  </g>
</svg>

<svg xmlns="http://www.w3.org/2000/svg" viewBox="0 0 256 256"><g opacity="0.2"><path d="M78,201.3,45.1,228.9A8,8,0,0,1,32,222.8V64a8,8,0,0,1,8-8H216a8,8,0,0,1,8,8V192a8,8,0,0,1-8,8H81.7Z"/></g><path d="M216,48H40A16,16,0,0,0,24,64V222.8a15.7,15.7,0,0,0,9.2,14.5,16.5,16.5,0,0,0,6.8,1.6,16,16,0,0,0,10.3-3.8L82,208.4l1.1-.4H216a16,16,0,0,0,16-16V64A16,16,0,0,0,216,48Zm0,144H81.7a8.7,8.7,0,0,0-2.8.5l-3.7,1.3a10,10,0,0,0-2.4,1.4L40,222.8V64H216Z"/><path d="M96,120h64a8,8,0,0,0,0-16H96a8,8,0,0,0,0,16Z"/><path d="M96,152h64a8,8,0,0,0,0-16H96a8,8,0,0,0,0,16Z"/></svg>
